X:1
T:Galaicea
T:Galaecia
M:6/8
R:jig
K:D
BAB|"Em"G>FE BAB|G>FE E>DE|"C"F>GA A>GA|"Am"BGE BAB|"Em"G>FE BAB|G>FE E>DE|"C"F>GA "D"A>GF|
"Em"EGE BGB|"Em"G>FE BAB|G>FE E>DE|"C"F>GA A>GA|"Am"BGE BAB|"Em"G>FE BAB|G>FE E>DE|"C"F>GA "D"A>GF|
"Em"EGE BEB|"G"d>cB AFD|"C"E>FE BEB|"D"A>FD D>EF|"Em"EGE BGB|"G"d>cB AFD|"C"E>GE "D"F>DF|
"Em"E>GE BEB|"G"d>cB AFD|"C"E>FE BEB|"D"A>FD D>EF|"Em"EGE BEB|"G"d>cB AFD|"C"E>GE "D"F>DF|"Em"E3|]
